!!!COM: Palestrina, Giovanni Perluigi da
!!!OPR: Sacerdos et pontifex
!!!OTL: Kyrie
**kern	**kern	**kern	**kern	**kern
*Ibass	*Itenor	*Itenor	*Icalto	*Icant
!Bassus	!Tenor 2	!Tenor 1	!Altus	!Cantus
*clefF4	*clefGv2	*clefGv2	*clefG2	*clefG2
*k[b-]	*k[b-]	*k[b-]	*k[b-]	*k[b-]
*G:dor	*G:dor	*G:dor	*G:dor	*G:dor
*M4/2	*M4/2	*M4/2	*M4/2	*M4/2
=1	=1	=1	=1	=1
0G	0r	0r	0r	0r
=2	=2	=2	=2	=2
1G	0r	0r	0r	0r
1F#	.	.	.	.
=3	=3	=3	=3	=3
1G	1r	0d	0r	0r
2.B-	[1G	.	.	.
4A	.	.	.	.
=4	=4	=4	=4	=4
2G	1G]	1d	0r	0r
2F	.	.	.	.
1E	1G	1c#	.	.
=5	=5	=5	=5	=5
1D	1F#	1d	1r	0r
2r	2.G	2.B-	[1g	.
2G	.	.	.	.
.	4A	4c	.	.
=6	=6	=6	=6	=6
2G	2B-	2d	1g]	0r
2C	1c	2e-	.	.
1G	.	1d	1g	.
.	2B-	.	.	.
=7	=7	=7	=7	=7
1D	1A	2r	1f#	0r
.	.	2d	.	.
2r	4G	2d	2.g	.
.	4A	.	.	.
2G	4B-	2G	.	.
.	4c	.	4a	.
=8	=8	=8	=8	=8
2G	2d	1g	2b-	1r
2C	2e-	.	1cc	.
1G	2d	1g	.	[1dd
.	[2g	.	2b-	.
=9	=9	=9	=9	=9
2D	2g]	0r	2.a	1dd]
2d	4f#	.	.	.
.	4e	.	4g	.
2d	2f#	.	2a	1dd
2G	2g	.	2b-	.
=10	=10	=10	=10	=10
1A	1e	1r	1a	1cc#
1D	2.f	[1d	2r	2.dd
.	.	.	2a	.
.	4e	.	.	4ee
=11	=11	=11	=11	=11
0r	2d	1d]	2a	2ff
.	4G	.	1b-	1gg
.	4A	.	.	.
.	4B-	1d	.	.
.	4c	.	.	.
.	2d	.	4a	2ff
.	.	.	4g	.
=12	=12	=12	=12	=12
1r	1A	1c#	1a	1ee
2r	2.B-	2.d	2f	[1dd
[2d	.	.	2b-	.
.	4c	4e	.	.
=13	=13	=13	=13	=13
2d]	1d	2f	2a	1dd]
2G	.	1g	2b-	.
1d	1r	.	[1a	2r
.	.	2f	.	2dd
=14	=14	=14	=14	=14
1A	2r	1e	1a]	2dd
.	2a	.	.	2cc
[1D	2a	1d	2r	1ff
.	2d	.	2a	.
=15	=15	=15	=15	=15
1D]	2.a	2r	2a	1ff
.	.	2d	2d	.
.	4g	.	.	.
1r	2f	2d	2a	1dd
.	[2g	2G	2b-	.
=16	=16	=16	=16	=16
0r	2g]	1d	1a	2r
.	2f#	.	.	2dd
.	2g	2G	2.b-	2dd
.	2e-	[2g	.	2g
.	.	.	4g	.
=17	=17	=17	=17	=17
0D	0d	2g]	2a	2.dd
.	.	4f	2a	.
.	.	4e	.	4cc
.	.	4f	2a	4dd
.	.	4g	.	4ee
.	.	2a	2d	2ff
=18	=18	=18	=18	=18
1D	1r	1f	2.a	2dd
.	.	.	.	1ff
.	.	.	4b-	.
1C	2r	1g	2.cc	.
.	2c	.	.	2ee
.	.	.	4b-	.
=19	=19	=19	=19	=19
2.D	2F	2f	4a	2.ff
.	.	.	4g	.
.	2.f	2F	1a	.
4E	.	.	.	4ee
2F	.	2A	.	4dd
.	4e	.	.	4cc
[2G	4d	[2B-	2g	4b-
.	4c	.	.	4a
=20	=20	=20	=20	=20
2G]	1d	4B-]	2b-	2g
.	.	4G	.	.
2F	.	1d	2.a	2a
1E-	1G	.	.	2b-
.	.	.	4g	.
.	.	2c	[2g	2g
=21	=21	=21	=21	=21
1D	1A	1d	2g]	1dd
.	.	.	2f#	.
[1G	1G	2r	1g	2.b-
.	.	2d	.	.
.	.	.	.	4cc
=22	=22	=22	=22	=22
1G]	2r	2d	1.b-	1dd
.	2d	2G	.	.
1r	2d	2.d	.	2r
.	2G	.	2b-	2dd
.	.	4e	.	.
=23	=23	=23	=23	=23
1r	2d	2f	2a	2dd
.	2e-	1g	2cc	2g
2r	1d	.	2b-	2.dd
[2d	.	2f	2a	.
.	.	.	.	4cc
=24	=24	=24	=24	=24
2d]	2G	1d	1g	4b-
.	.	.	.	4a
2G	1g	.	.	2b-
1d	.	2r	1r	2.a
.	2f	2a	.	.
.	.	.	.	4b-
=25	=25	=25	=25	=25
2c	2e	2a	1r	2cc
2B	4f	2d	.	1dd
.	4d	.	.	.
1A	1e	2.a	2r	.
.	.	.	2a	2cc#
.	.	4g	.	.
=26	=26	=26	=26	=26
2.D	2d	2.f	2a	1dd
.	2.f	.	2d	.
4E	.	4e	.	.
2F	.	4d	2a	2r
.	4e	4c	.	.
[2G	4d	4B-	[2g	2dd
.	4c	4A	.	.
=27	=27	=27	=27	=27
2G]	2.B-	1G	4g]	2dd
.	.	.	4a	.
2E-	.	.	1b-	2g
.	4c	.	.	.
1D	1d	1A	.	1dd
.	.	.	[2a	.
=28	=28	=28	=28	=28
1C	1G	2.c	4a]	1ee-
.	.	.	4g	.
.	.	.	1g	.
.	.	4B-	.	.
1D	1d	1A	.	1dd
.	.	.	2f#	.
=29	=29	=29	=29	=29
0G	0d	0G	0g	0b
=30	=30	=30	=30	=30
1F	0r	1r	0r	0r
1G	.	1B-	.	.
=31	=31	=31	=31	=31
1A	0r	1c	0r	0r
2F	.	1d	.	.
[2G	.	.	.	.
=32	=32	=32	=32	=32
2G]	0r	2B-	1r	0r
2A	.	2c	.	.
2.B-	.	2d	1f	.
.	.	[2f	.	.
4A	.	.	.	.
=33	=33	=33	=33	=33
1G	1B-	2f]	1g	0r
.	.	2e	.	.
1F	1c	[1f	[1a	.
=34	=34	=34	=34	=34
0r	1d	2f]	2a]	0r
.	.	2B-	2f	.
.	2B-	2d	2g	.
.	2c	2e	2a	.
=35	=35	=35	=35	=35
0r	2d	2f	2.b-	1r
.	1e-	1g	.	.
.	.	.	4a	.
.	.	.	2g	1b-
.	2d	2f	[2b-	.
=36	=36	=36	=36	=36
1r	1c	2g	2b-]	1cc
.	.	2e-	2a	.
2r	1B-	2.f	2b-	1dd
[2B-	.	.	2f	.
.	.	4e-	.	.
=37	=37	=37	=37	=37
2B-]	0r	2d	2g	2b-
2A	.	2c	2a	2cc
2G	.	2B-	2.b-	2dd
4E-	.	2G	.	[2ee-
4F	.	.	4a	.
=38	=38	=38	=38	=38
4G	2r	1B-	2g	2ee-]
4A	.	.	.	.
1B-	2B-	.	2f	2dd
.	1c	1F	1f	1cc
2A	.	.	.	.
=39	=39	=39	=39	=39
1B-	1d	0r	2r	2b-
.	.	.	2f	1dd
1r	2B-	.	2g	.
.	2c	.	[2a	4cc
.	.	.	.	4b-
=40	=40	=40	=40	=40
0r	1d	1f	4a]	2a
.	.	.	4f	.
.	.	.	2.b-	2dd
.	1e-	1g	.	2b-
.	.	.	4a	.
.	.	.	[2g	2cc
=41	=41	=41	=41	=41
1r	0d	1a	2g]	0dd
.	.	.	2f	.
1BB-	.	2f	1b-	.
.	.	2d	.	.
=42	=42	=42	=42	=42
1C	2.c	1e-	2a	1r
.	.	.	1g	.
.	4B-	.	.	.
1D	1A	1d	.	2r
.	.	.	[2f	[2dd
=43	=43	=43	=43	=43
2BB-	2B-	0r	4f]	2dd]
.	.	.	4d	.
2C	1G	.	2e-	2cc
1D	.	.	1d	2b-
.	2F	.	.	2a
=44	=44	=44	=44	=44
0E-	4B-	2r	1G	2g
.	4A	.	.	.
.	4G	1B-	.	2.b-
.	4F	.	.	.
.	1G	.	1g	.
.	.	.	.	4a
.	.	2c	.	[2g
=45	=45	=45	=45	=45
1D	1A	1.d	0r	2g]
.	.	.	.	2f#
2.B-	1G	.	.	2g
.	.	2B-	.	[2dd
4A	.	.	.	.
=46	=46	=46	=46	=46
1G	1B-	2d	1r	4dd]
.	.	.	.	4cc
.	.	2e	.	1b-
1F	1c	1f	2r	.
.	.	.	[2f	2a
=47	=47	=47	=47	=47
0r	1d	1B-	2f]	2b-
.	.	.	1g	2dd
.	1e	1c	.	2.cc
.	.	.	[2a	.
.	.	.	.	4b-
=48	=48	=48	=48	=48
0r	1f	1d	2a]	1a
.	.	.	1f	.
.	1d	2.B-	.	2r
.	.	.	2g	[2b-
.	.	4c	.	.
=49	=49	=49	=49	=49
0r	2r	2d	2f	2b-]
.	1g	2e-	2g	2cc
.	.	1d	1a	1dd
.	2f#	.	.	.
=50	=50	=50	=50	=50
0r	2g	2G	1g	2b-
.	2e-	1g	.	2cc
.	1d	.	1a	1dd
.	.	2f#	.	.
=51	=51	=51	=51	=51
0r	1G	2.g	1b-	2ee-
.	.	.	.	1dd
.	.	4f	.	.
.	[1A	1e	[1a	.
.	.	.	.	[2cc
=52	=52	=52	=52	=52
1F	1A]	1f	1a]	2cc]
.	.	.	.	4b-
.	.	.	.	4a
1G	2r	2e	1g	1b-
.	2d	[2d	.	.
=53	=53	=53	=53	=53
1A	2f	2d]	2r	1a
.	2.e	2c#	2e	.
2F	.	2d	2a	1r
.	4d	.	.	.
2G	[2d	2d	2b-	.
=54	=54	=54	=54	=54
1A	2d]	2f	1a	0r
.	2c#	2e	.	.
[1B-	[1d	2d	2f	.
.	.	2f	2d	.
=55	=55	=55	=55	=55
1B-]	1d]	2e	2.f	2r
.	.	1d	.	2dd
.	.	.	4g	.
1A	2r	.	[1a	2ff
.	2e	2c#	.	2ee
=56	=56	=56	=56	=56
2.D	1f	1d	2a]	2dd
.	.	.	2d	2.ff
4C#	.	.	.	.
4D	2d	[1A	1f	.
4E	.	.	.	4ee
4F	[2a	.	.	2dd
4G	.	.	.	.
=57	=57	=57	=57	=57
2A	4a]	0A]	2e	2cc#
.	4g	.	.	.
2D	2f	.	2a	1dd
1A	1e	.	1a	.
.	.	.	.	2cc#
=58	=58	=58	=58	=58
0D	0d	0A	0f#	0dd
=59	=59	=59	=59	=59
0r	0r	0B-	0r	0r
=60	=60	=60	=60	=60
1r	0r	1c	1r	0r
[1B-	.	[1d	[1f	.
=61	=61	=61	=61	=61
1B-]	0r	2d]	1f]	0b-
.	.	2B-	.	.
1G	.	1d	1g	.
=62	=62	=62	=62	=62
1F	0r	2.f	1a	1cc
.	.	4e	.	.
1B-	.	4d	2g	1dd
.	.	4c	.	.
.	.	2d	2f	.
=63	=63	=63	=63	=63
1E-	0r	2.e-	1g	2cc
.	.	.	.	1b-
.	.	4d	.	.
2.F	.	1c	[1f	.
.	.	.	.	2a
4E-	.	.	.	.
=64	=64	=64	=64	=64
2D	0r	2d	2f]	2b-
2C	.	2e-	2g	1cc
2F	.	[1d	2a	.
2G	.	.	[2g	2b-
=65	=65	=65	=65	=65
1D	1r	1d]	2g]	1a
.	.	.	2f	.
[1E-	[1B-	2.G	2.b-	2.g
.	.	4F	4a	4a
=66	=66	=66	=66	=66
2E-]	1B-]	4G	2g	1b-
.	.	4A	.	.
2D	.	1B-	2f	.
1C	1c	.	1e-	1r
.	.	2A	.	.
=67	=67	=67	=67	=67
1BB-	1d	1B-	2d	2r
.	.	.	2.f	2b-
2F	2c	2A	.	2cc
.	.	.	4e-	.
2BB-	[2B-	2B-	4d	2dd
.	.	.	4e-	.
=68	=68	=68	=68	=68
1F	2B-]	1c	4f	2cc
.	.	.	4g	.
.	2A	.	2a	1ff
1r	2B-	2d	1g	.
.	[2c	[2g	.	4ee
.	.	.	.	4dd
=69	=69	=69	=69	=69
0r	2c]	4g]	2c	2ee
.	.	4c	.	.
.	2B-	2d	2g	1dd
.	1A	1e	2.a	.
.	.	.	.	2cc#
.	.	.	4g	.
=70	=70	=70	=70	=70
0B-	2.d	2d	2.f	1dd
.	.	1f	.	.
.	4e	.	4e	.
.	2f	.	1d	1dd
.	2d	2g	.	.
=71	=71	=71	=71	=71
1c	1e	2a	1r	1cc
.	.	1g	.	.
1d	1r	.	2r	2.a
.	.	2f	2d	.
.	.	.	.	4b-
=72	=72	=72	=72	=72
2c	1r	2g	2e	2cc
1B-	.	2.d	2f	1dd
.	2r	.	2g	.
.	.	4e	.	.
2A	2c	[2f	2a	2cc
=73	=73	=73	=73	=73
2B-	2d	2f]	2.g	2r
1c	2.e	4e	.	2g
.	.	4d	4f	.
.	.	2c	2e	2a
.	4f	.	.	.
2B-	[2g	2d	2d	2b-
=74	=74	=74	=74	=74
1A	2g]	2e	1c	2.cc
.	2f#	2c	.	.
.	.	.	.	4a
1G	2g	[1d	1r	4b-
.	.	.	.	4cc
.	2G	.	.	4dd
.	.	.	.	4ee
=75	=75	=75	=75	=75
1D	2A	1d]	0r	1ff
.	2B-	.	.	.
2E	2c	1r	.	2ee
2F	2d	.	.	[2dd
=76	=76	=76	=76	=76
2G	2e	0r	1r	2dd]
2A	2.f	.	.	2cc
1B-	.	.	1d	2b-
.	4e	.	.	.
.	[2d	.	.	2g
=77	=77	=77	=77	=77
1A	2d]	0r	2e	1a
.	2c	.	2f	.
2G	1d	.	2g	2b-
2F#	.	.	2a	2a
=78	=78	=78	=78	=78
1G	2.d	1r	2b-	2r
.	.	.	2dd	2g
.	4e	.	.	.
1r	2f	2r	2cc	2a
.	2d	2G	2b-	2b-
=79	=79	=79	=79	=79
1r	2c	2A	2a	2cc
.	2B-	2B-	1g	2dd
2r	1A	2c	.	2ee-
2D	.	2d	2f#	4dd
.	.	.	.	4cc
=80	=80	=80	=80	=80
2G	1G	2e-	4g	1b-
.	.	.	4a	.
2G	.	2.d	4b-	.
.	.	.	4g	.
2F	1r	.	2a	1cc
.	.	4c	.	.
2E-	.	[2c	2g	.
=81	=81	=81	=81	=81
1D	2r	2c]	1f	2dd
.	2d	2B	.	1ff
1C	2g	1c	2r	.
.	2g	.	2cc	2ee
=82	=82	=82	=82	=82
1r	2f	2r	2a	2dd
.	2e	2c	2.g	1cc
1G	1d	[1g	.	.
.	.	.	4f	.
.	.	.	2d	2b
=83	=83	=83	=83	=83
2c	1c	2g]	2e	2cc
2c	.	2e	1g	4g
.	.	.	.	4a
2B-	1r	2d	.	4b-
.	.	.	.	4g
2A	.	2c	2f#	[2cc
=84	=84	=84	=84	=84
1G	2r	2d	1g	2cc]
.	2G	1g	.	2b-
1r	2d	.	2r	2.a
.	2d	2f	2d	.
.	.	.	.	4b-
=85	=85	=85	=85	=85
0r	2c	2e	2g	2cc
.	2B-	2d	2g	1dd
.	1A	1a	2f	.
.	.	.	2e	2cc#
=86	=86	=86	=86	=86
1D	1d	1f	2d	1dd
.	.	.	2a	.
2G	1B-	2.d	1b-	2r
2G	.	.	.	2g
.	.	4e	.	.
=87	=87	=87	=87	=87
2F	2c	2f	2a	2cc
2E-	4G	2c	1g	2cc
.	4A	.	.	.
[1D	4B-	2.d	.	2b-
.	4c	.	.	.
.	[2d	.	4f#	2a
.	.	8c	4e	.
.	.	8B-	.	.
=88	=88	=88	=88	=88
0D]	4d]	2A	2f#	0dd
.	4c	.	.	.
.	2B	2d	1g	.
.	1A	1d	.	.
.	.	.	2f#	.
=89	=89	=89	=89	=89
0G	0G	0d	0g	0b
==	==	==	==	==
*-	*-	*-	*-	*-
!!!CDT: 1525/^1526/-1594/2/2
!!!OCY: Italia
!!!AGN: Mass (Paraphrase)
!!!AST: renaissance, vocal
!!!ASW: Antiphon
!!!PWK: Masses, Book 7
!!!RNB: Cadence finals: C,D
!!!YOR: Le Opere Complete, v. 23, p. 82
!!!YOO: Rome, Italy: Fratelli Scalera
!!!END: 1992//
!!!EED: John Miller
!!!YEC: Copyright 2000, John Miller
!!!YEN: United States of America
!!!YEM: Rights to all derivative electronic formats reserved.
!!!YEM: Refer to licensing agreement for further details.
!!!YEM: This file must be accompanied by the licensing agreement.
!!!YEM: A copy of the licensing agreement may be found at http://www.music-cog.ohio-state.edu/HumdrumDatabases/Palestrina/license.txt
!!!EMD: converted to Humdrum by Bret Aarden
